X:2059
T:Buffoon
T:Morris Dance
C:Performed by Sam Bennett, 12 Jan 1909, Ilmington, Waricks
Z:Transcribed by David Jacobs July 2015
F:http://www.vwml.org/record/CJS2/10/2059
L:1/4
M:C
K:G
"AABB"
"A"
GBBA/B/|cccB|GBBA/G/|Fdd2|
w:R R L L 
GBBA/B/|cc c>B|Ad d/e/d/c/|BAG2||
"B"
dgg2|ecc2|Aaa2|fdd2|
w:b ack back sides 
dgg2|ecc2|Ad d/c/d/c/|BGG2|BGG2||

